img/icon/prof-nav-1.svg

<svg width="24" height="24" fill="none" xmlns="http://www.w3.org/2000/svg"><path d="M20.25 13H7a2 2 0 1 0 0 4h13.25m-.505-4v4m-1.495 0H5a2 2 0 1 0 0 4h13.25m-.505-4v4M13.792 6.167h-1.167V5a2 2 0 0 1 2-2h1.167v1.167a2 2 0 0 1-2 2zM12.625 13A3.905 3.905 0 0 1 8.72 9.095c0-1.704.781-2.929 2.343-2.929.781 0 1.224.251 1.562.251.338 0 .781-.251 1.562-.251 1.562 0 2.343 1.225 2.343 2.929A3.905 3.905 0 0 1 12.625 13z" stroke="#848E9F" stroke-width="1.5" stroke-linecap="round" stroke-linejoin="round"/></svg>

<svg width="24" height="24" viewBox="0 0 24 24" fill="none" xmlns="http://www.w3.org/2000/svg">
<path d="M20.25 13H7C5.895 13 5 13.895 5 15C5 16.105 5.895 17 7 17H20.25M19.745 13V17M18.25 17H5C3.895 17 3 17.895 3 19C3 20.105 3.895 21 5 21H18.25M17.745 17V21M13.792 6.167H12.625V5C12.625 3.895 13.52 3 14.625 3H15.792V4.167C15.792 5.271 14.896 6.167 13.792 6.167ZM12.625 13C10.468 13 8.72 11.252 8.72 9.095C8.72 7.391 9.501 6.166 11.063 6.166C11.844 6.166 12.287 6.417 12.625 6.417C12.963 6.417 13.406 6.166 14.187 6.166C15.749 6.166 16.53 7.391 16.53 9.095C16.53 11.252 14.782 13 12.625 13Z" stroke="#848E9F" stroke-width="1.5" stroke-linecap="round" stroke-linejoin="round"/>
</svg>
